packages/foundations/assets/icons/functional/images/layout/fullscreen_exit_20.svg

<svg width="20" height="20" viewBox="0 0 20 20" fill="none" xmlns="http://www.w3.org/2000/svg">
<g clip-path="url(#clip0_185_1338)">
<path fill-rule="evenodd" clip-rule="evenodd" d="M4.0093 11.0093L8 11C8.5535 11 8.9907 11.4651 8.9907 12.0186L9 16C9 16.5534 8.5535 17 8 17C7.4465 17 7 16.5534 7 16V13H4C3.4465 13 3 12.5535 3 12C3 11.4465 3.4558 11.0093 4.0093 11.0093ZM16 11C16.5534 11 17 11.4465 17 12C17 12.5535 16.5209 13 16 13H13V16C13 16.5534 12.5535 17 12 17C11.4465 17 11 16.5534 11 16L11.0093 12.0186C11.0093 11.4651 11.4465 11 12 11H16ZM16.0047 9H12C11.4465 9 11 8.5535 11 8L11.0093 4.0093C11.0093 3.4558 11.4279 3.0093 11.9814 3.0093C12.5349 3.0093 13 3.4837 13 4.0372V7H15.9954C16.5163 7 17 7.4465 17 8C17 8.5535 16.5581 9 16.0047 9ZM4.0093 8.9907C3.4558 8.9907 3 8.5535 3 8C3 7.4465 3.4465 7 4 7H7V4.0372C7 3.4837 7.4279 3 7.9814 3C8.5349 3 8.9907 3.4558 8.9907 4.0093L9 8C9 8.5535 8.5535 9 8 9L4.0093 8.9907Z" fill="#1A1C1F"/>
</g>
<defs>
<clipPath id="clip0_185_1338">
<rect width="20" height="20" fill="white"/>
</clipPath>
</defs>
</svg>

<svg xmlns="http://www.w3.org/2000/svg" width="20" height="20" fill="none"><g clip-path="url(#a)"><path fill="#1A1C1F" fill-rule="evenodd" d="M4.01 11.01 8 11c.553 0 .99.465.99 1.019L9 16c0 .553-.447 1-1 1s-1-.447-1-1v-3H4c-.554 0-1-.447-1-1s.456-.99 1.01-.99M16 11c.553 0 1 .447 1 1s-.48 1-1 1h-3v3c0 .553-.447 1-1 1s-1-.447-1-1l.01-3.981c0-.554.437-1.019.99-1.019zm.005-2H12c-.553 0-1-.447-1-1l.01-3.99c0-.554.418-1 .971-1 .554 0 1.019.474 1.019 1.027V7h2.995C16.516 7 17 7.447 17 8s-.442 1-.995 1M4.009 8.99A1 1 0 0 1 3 8c0-.553.446-1 1-1h3V4.037C7 3.484 7.428 3 7.981 3c.554 0 1.01.456 1.01 1.01L9 8c0 .553-.447 1-1 1z" clip-rule="evenodd"/></g><defs><clipPath id="a"><path fill="#fff" d="M0 0h20v20H0z"/></clipPath></defs></svg>
